X:0308
M:2/4
L:1/16
Q:1/4=88
K:G
g2d2B2G2|e2c2B2A2 |d2G2F2G2|AGFE D2D2|\
g2d2B2G2|e2c2B2A2 |d2G2A2F2|G4   G4 :|

